svg/white/zest.svg

<?xml version="1.0" encoding="UTF-8"?>
<svg width="32px" height="32px" viewBox="0 0 32 32" version="1.1" xmlns="http://www.w3.org/2000/svg" xmlns:xlink="http://www.w3.org/1999/xlink">
    <!-- Generator: Sketch 52.5 (67469) - http://www.bohemiancoding.com/sketch -->
    <title>svg/white/zest</title>
    <desc>Created with Sketch.</desc>
    <g id="white/zest" stroke="none" stroke-width="1" fill="none" fill-rule="evenodd">
        <path d="M16,32 C7.163444,32 0,24.836556 0,16 C0,7.163444 7.163444,0 16,0 C24.836556,0 32,7.163444 32,16 C32,24.836556 24.836556,32 16,32 Z M18.2661976,8.6369103 C17.8434492,8.53703598 17.393244,8.59069746 17,8.79789474 C16.1528937,9.18239627 15.2621318,9.46235001 14.3473684,9.63157895 C13.9415361,9.72745391 13.5427158,9.85089829 13.1536842,10.0010526 C12.8293177,10.1837708 12.4902419,10.3390485 12.14,10.4652632 C11.2684211,10.5884211 9.65789474,9.51789474 9.80947368,11.1757895 C9.80947368,11.4789474 10.1221053,11.64 10.0273684,12.0284211 C9.93263158,12.4168421 9.51578947,12.7578947 9.31684211,13.0610526 C8.90838626,13.7468171 8.58997627,14.4823442 8.36947368,15.2494737 C7.83105055,16.9866825 7.93528738,18.8595829 8.66315789,20.5263158 C9.01379088,21.3461037 9.47953121,22.1117043 10.0463158,22.8 C10.322632,23.1229375 10.5669363,23.4719437 10.7757895,23.8421053 C10.935601,24.279551 11.1353935,24.7013352 11.3726316,25.1021053 C11.7906513,25.6269127 12.4681311,25.8722703 13.1252632,25.7368421 C13.4561624,25.6229618 13.7737938,25.473675 14.0726316,25.2915789 C14.5836623,25.088618 15.1185113,24.9517222 15.6642105,24.8842105 C17.6547792,24.572183 19.4705303,23.565297 20.7894737,22.0421053 C21.4141782,21.2880551 21.89868,20.4281448 22.22,19.5031579 C22.4067041,18.9869811 22.5431267,18.4539812 22.6273684,17.9115789 C22.6747368,17.5705263 22.5705263,16.7084211 22.8168421,16.4810526 C22.9778947,16.3294737 23.3568421,16.2915789 23.4705263,16.1494737 C23.556997,15.9610994 23.6236704,15.764254 23.6694737,15.5621053 C23.8494737,15.0031579 22.7978947,14.5578947 22.3905263,14.3684211 C21.86,14.0463158 21.6705263,13.0989474 21.3389474,12.5778947 C20.8842105,11.8484211 20.2210526,11.2515789 19.8231579,10.4936842 C19.4252632,9.73578947 19.3778947,9.15789474 18.6957895,8.79789474 C18.6097647,8.75256894 18.5210141,8.71459052 18.4304213,8.68395948 C18.2603075,8.27677594 19.0084678,8.11579531 19.2357895,8.14421053 C19.6431955,8.26374933 20.0165274,8.47800941 20.3252632,8.76947368 C20.9221053,9.21473684 22.0968421,10.5315789 22.9589474,10.2189474 C23.8210526,9.90631579 22.7978947,8.38105263 22.3242105,7.98315789 C21.5391307,7.24251144 20.4504973,6.91592143 19.3873684,7.10210526 C18.9089973,7.24586441 18.5177102,7.59213618 18.3168421,8.04947368 C18.271537,8.21559229 18.1299395,8.5201313 18.2661976,8.6369103 Z M23.8968421,6.69473684 C23.3284211,6.55263158 22.0021053,6.57157895 21.5947368,7.13052632 C22.0021053,7.35789474 22.2863158,7.70842105 22.7031579,7.71789474 C23.12,7.72736842 23.6031579,7.32947368 24.1336842,7.55684211 C23.9063158,7.55684211 22.8831579,7.74631579 22.8168421,8.05894737 C22.9602859,8.29386413 23.1321045,8.51022827 23.3284211,8.70315789 C23.5936842,8.92105263 23.6221053,8.99684211 24.02,8.77894737 C24.5071916,8.47148008 24.8748312,8.00691732 25.0621053,7.46210526 C25.0621053,7.17789474 25.1473684,7.36736842 24.9389474,7.13052632 C24.6331598,6.90097463 24.2750108,6.75120325 23.8968421,6.69473684 Z M18.5536842,7.19684211 C19.3232656,6.7863712 20.2174636,6.67501825 21.0642105,6.88421053 C20.9822269,5.97159422 20.5553332,5.12458286 19.8705263,4.51578947 C20.6902197,5.02546241 21.2679881,5.84596187 21.4715789,6.78947368 C21.9357895,6.71368421 22.4189474,6.53368421 22.8642105,6.46736842 C22.7840435,5.56014534 22.3845505,4.71080303 21.7368421,4.07052632 C21.4242105,3.77684211 20.5431579,3 20.0410526,3 C19.5389474,3 18.8852632,4.13684211 18.6957895,4.60105263 C18.3715999,5.42875772 18.3217858,6.33869425 18.5536842,7.19684211 Z M23.1105263,15.7231579 C22.9684211,16.0452632 22.4094737,16.2347368 22.1631579,16.5757895 C21.8089096,17.2148814 21.3362946,17.7807333 20.7705263,18.2431579 C19.595561,18.8551155 18.1514492,18.5448105 17.3315789,17.5042105 C16.9120111,16.9801494 16.6846512,16.3281616 16.6873684,15.6568421 C16.6873684,15.1357895 17.2557895,13.8284211 16.6873684,13.5442105 C16.1189474,13.26 15.8536842,14.1789474 15.6357895,14.4915789 C15.2547496,15.1247204 14.6752639,15.6142859 13.9873684,15.8842105 C12.8963672,16.2537556 11.6904952,15.9914511 10.8515789,15.2021053 C10.2940355,14.4084516 10.1300193,13.4034159 10.4063158,12.4736842 C10.41893,12.0062829 10.3776044,11.538986 10.2831579,11.0810526 C10.2831579,10.3989474 10.88,10.6452632 11.3631579,10.74 C12.5604692,10.9531653 13.6978319,11.4216812 14.6978947,12.1136842 C15.6371896,12.8943017 16.7636621,13.4167237 17.9663158,13.6294737 C18.7712775,13.7045767 19.569366,13.8407585 20.3536842,14.0368421 C20.7421053,14.1505263 21.1021053,14.34 21.4810526,14.4726316 C21.8816708,14.6021655 22.2687532,14.7703242 22.6368421,14.9747368 C22.8926316,15.0884211 23.2621053,15.3157895 23.12,15.6852632 L23.1105263,15.7231579 Z" id="Combined-Shape" fill="#FFFFFF" fill-rule="nonzero"></path>
    </g>
</svg>

<svg width="32" height="32" viewBox="0 0 32 32" xmlns="http://www.w3.org/2000/svg"><path d="M16 32C7.163 32 0 24.837 0 16S7.163 0 16 0s16 7.163 16 16-7.163 16-16 16zm2.266-23.363a1.819 1.819 0 0 0-1.266.16c-.847.385-1.738.665-2.653.835a9.17 9.17 0 0 0-1.193.37 6.679 6.679 0 0 1-1.014.463c-.872.123-2.482-.947-2.33.71 0 .304.312.465.217.853-.094.389-.511.73-.71 1.033a9.294 9.294 0 0 0-.948 2.188 7.579 7.579 0 0 0 .294 5.277c.35.82.817 1.586 1.383 2.274.277.323.52.672.73 1.042.16.438.36.86.597 1.26a1.78 1.78 0 0 0 1.752.635 4.86 4.86 0 0 0 .948-.445 6.461 6.461 0 0 1 1.591-.408 8.526 8.526 0 0 0 5.125-2.842 8.195 8.195 0 0 0 1.431-2.539 8.482 8.482 0 0 0 .407-1.591c.048-.341-.056-1.204.19-1.43.16-.153.54-.19.654-.333a2.96 2.96 0 0 0 .198-.587c.18-.559-.871-1.004-1.278-1.194-.531-.322-.72-1.27-1.052-1.79-.455-.73-1.118-1.326-1.516-2.084-.398-.758-.445-1.336-1.127-1.696a1.82 1.82 0 0 0-.266-.114c-.17-.407.578-.568.806-.54.407.12.78.334 1.09.625.596.446 1.77 1.763 2.633 1.45.862-.313-.161-1.838-.635-2.236a3.42 3.42 0 0 0-2.937-.88c-.478.143-.87.49-1.07.946-.045.167-.187.471-.05.588zm5.63-1.942c-.568-.142-1.894-.123-2.301.436.407.227.691.577 1.108.587.417.01.9-.389 1.43-.161-.227 0-1.25.19-1.316.502.143.235.315.451.511.644.266.218.294.294.692.076a2.53 2.53 0 0 0 1.042-1.317c0-.284.085-.095-.123-.331a2.302 2.302 0 0 0-1.042-.436zm-5.342.502a3.534 3.534 0 0 1 2.51-.313 3.6 3.6 0 0 0-1.193-2.368c.82.51 1.397 1.33 1.6 2.273.465-.075.948-.255 1.393-.322a3.846 3.846 0 0 0-1.127-2.396C21.424 3.777 20.543 3 20.04 3s-1.156 1.137-1.345 1.601a4.15 4.15 0 0 0-.142 2.596zm4.557 8.526c-.143.322-.702.512-.948.853a5.76 5.76 0 0 1-1.392 1.667 2.757 2.757 0 0 1-3.44-.739 2.937 2.937 0 0 1-.644-1.847c0-.521.569-1.829 0-2.113-.568-.284-.833.635-1.051.948a3.354 3.354 0 0 1-1.649 1.392 3.117 3.117 0 0 1-3.135-.682 3.174 3.174 0 0 1-.446-2.728 6.082 6.082 0 0 0-.123-1.393c0-.682.597-.436 1.08-.341a8.47 8.47 0 0 1 3.335 1.374 7.03 7.03 0 0 0 3.268 1.515c.805.076 1.603.212 2.388.408.388.114.748.303 1.127.436.4.13.788.297 1.156.502.256.113.625.34.483.71l-.01.038z" fill="#FFF"/></svg>
